X: 1
T: Young Nedd Of The Hill
M: 2/4
L: 1/8
R: polka
K: Amin
EG | A>B cd | BG EG | A>B AG | ED EG |
A>B cd | Bc dc/d/ | ea ag | e3 d |
ea ag | eA A>B | c>d c/B/A | BG EG |
A>B cd | BG EG | Ae d/B/G | A2 ||
